X:5451
T:Fourposter Bed, The
M:2/4
L:1/16
C:Traditional
N:In 3rd and 4th measure of 2nd part, note after each PIZZ is a tap on
N:the top of the fiddle.
K:D
|:f2f2 e2fg|afge dcde|f2gf e2d2|a4A4:||:e2ee e2ef|edcB A2A2|
"pz"e2 e2 "pz"e2 e2|"pz"e2 e2 "pz"e2 e2|e2ee e2ef|
edcB A2^g2|a2 (gag f2c2|d4d4:|
